!!!!SEGMENT: Ver2016-Ave_gratia_plena.krn
!!!id: Ver2016
!!!AGN: Motet
!!!SCT: Slim (1972)
!!!voices: 5
!!!COM: Philippe Verdelot
!!!OTL: Ave gratia plena
**kern	**kern	**kern	**kern	**kern
*part5	*part4	*part3	*part2	*part1
*staff5	*staff4	*staff3	*staff2	*staff1
*I"Bassus	*I"Tenor II	*I"Tenor I	*I"Altus	*I"Superius
*I'B	*I'T. II	*I'T. I	*I'A	*I'S
*clefF4	*clefGv2	*clefGv2	*clefGv2	*clefG2
*k[]	*k[]	*k[]	*k[]	*k[]
*C:	*C:	*C:	*C:	*C:
*M2/1	*M2/1	*M2/1	*M2/1	*M2/1
*met(C|)	*met(C|)	*met(C|)	*met(C|)	*met(C|)
!!Section: Prima pars: Ave gratia plena
!!!OMD: Prima pars: Ave gratia plena
=1	=1	=1	=1	=1
0r	0r	0r	1.e	1e
.	.	.	.	1g
.	.	.	2e	.
=2	=2	=2	=2	=2
0r	0r	0r	1e	1.g
.	.	.	1e	.
.	.	.	.	2g
=3	=3	=3	=3	=3
0r	0r	0r	2.d	1a
.	.	.	4c	.
.	.	.	1A	1a
=4	=4	=4	=4	=4
1.E	1E	1.B	0e	0g
.	1G	.	.	.
2E	.	2B	.	.
=5	=5	=5	=5	=5
1E	1.G	1B	0r	0r
1E	.	1c	.	.
.	2G	.	.	.
=6	=6	=6	=6	=6
2.D	1A	1d	1r	0r
4C	.	.	.	.
1AA	1A	[1c	[1e	.
=7	=7	=7	=7	=7
0E	1.G	2c]	2e]	1e
.	.	4B	2e	.
.	.	4A	.	.
.	.	4B	1e	2g
.	.	4G	.	.
.	2E	2c	.	[2g
=8	=8	=8	=8	=8
2r	1E	1B	1e	2g]
2E	.	.	.	2g
2F	1r	2.A	2.d	1a
2F	.	.	.	.
.	.	4B	4c	.
=9	=9	=9	=9	=9
1F	0r	2c	1A	1a
.	.	2A	.	.
1E	.	2B	2e	1g
.	.	2G	2e	.
=10	=10	=10	=10	=10
1.D	1r	1d	2f	1.a
.	.	.	2f	.
.	[1A	2r	1f	.
2D	.	2A	.	2f
=11	=11	=11	=11	=11
2C	2A]	2c	1e	1g
2E	2G	2c	.	.
1D	2F	1d	2.A	1a
.	2F	.	.	.
.	.	.	4B	.
=12	=12	=12	=12	=12
1AA	1E	1e	2c	2a
.	.	.	2A	1cc
1AA	2r	1E	2.c	.
.	[2A	.	.	2cc
.	.	.	4d	.
=13	=13	=13	=13	=13
2C	2A]	2r	1e	2.cc
2C	2G	1e	.	.
.	.	.	.	4b
1D	2F	.	1A	4a
.	.	.	.	4g
.	2F	2d	.	[2a
=14	=14	=14	=14	=14
1E	1E	2c	1e	2a]
.	.	2B	.	2g
2r	1F	1A	2r	2a
[2A	.	.	2A	[2cc
=15	=15	=15	=15	=15
2A]	2r	2r	2c	4cc]
.	.	.	.	4b
2G	2E	1e	2c	1b
2F	2A	.	1d	.
2F	2D	2d	.	[2a
=16	=16	=16	=16	=16
0E	1G	1c	0e	2a]
.	.	.	.	4g#i
.	.	.	.	4f#i
.	2.E	1B	.	1g#i
.	4D	.	.	.
=17	=17	=17	=17	=17
[0AA	2E	2A	0c	1a
.	2F	1A	.	.
.	1E	.	.	1r
.	.	2G	.	.
=18	=18	=18	=18	=18
0AA]	2r	2F	2r	1.cc
.	1A	2F	1c	.
.	.	1E	.	.
.	2A	.	2c	2cc
=19	=19	=19	=19	=19
1r	2G	1r	2d	2b
.	2F	.	2d	2a
[1C	[1E	2r	[1e	[1g
.	.	[2c	.	.
=20	=20	=20	=20	=20
2C]	1E]	2c]	2e]	1g]
2C	.	2c	2e	.
2D	1r	2B	1f	1r
2D	.	2A	.	.
=21	=21	=21	=21	=21
1.E	2r	2.G	2.e	0r
.	1G	.	.	.
.	.	4A	4f	.
.	.	2B	2g	.
2E	2G	2c	[2e	.
=22	=22	=22	=22	=22
1F	2A	1A	2e]	0r
.	2A	.	2d	.
[1E	1B	1G	1e	.
=23	=23	=23	=23	=23
1E]	1.E	2r	2r	1.g
.	.	1G	1e	.
1r	.	.	.	.
.	2E	2G	2e	2g
=24	=24	=24	=24	=24
0r	2F	2A	2d	2f
.	2F	2A	1c	2e
.	1G	2B	.	1d
.	.	[2G	2B	.
=25	=25	=25	=25	=25
0r	1C	2G]	2c	1e
.	.	2c	2G	.
.	1D	2B	2.d	1f
.	.	2A	.	.
.	.	.	4c	.
=26	=26	=26	=26	=26
0r	0E	2G	4B	[0e
.	.	.	4A	.
.	.	2A	1A	.
.	.	1B	.	.
.	.	.	2G#i	.
=27	=27	=27	=27	=27
1AA	1r	1A	2A	0e]
.	.	.	2A	.
2AA	2r	1r	2.c	.
[2C	2E	.	.	.
.	.	.	4d	.
=28	=28	=28	=28	=28
4C]	2E	1G	2e	0r
4D	.	.	.	.
2.E	1G	.	2e	.
.	.	1B	1e	.
4F	.	.	.	.
2G	2E	.	.	.
=29	=29	=29	=29	=29
2E	2G	1c	0r	0r
1F	2.A	.	.	.
.	.	1d	.	.
.	4G	.	.	.
2D	4A	.	.	.
.	4F	.	.	.
=30	=30	=30	=30	=30
2.E	2G	1B	2r	0r
.	1E	.	2g	.
4D	.	.	.	.
2C	.	1A	2e	.
2D	[2A	.	[2f	.
=31	=31	=31	=31	=31
1BB	2A]	1B	2f]	1r
.	2G#i	.	2d	.
1AA	1A	[1c	2f	2r
.	.	.	[2e	[2a
=32	=32	=32	=32	=32
0r	1E	2c]	2e]	2a]
.	.	2B	2d	2g
.	1r	1A	1c	2f
.	.	.	.	[2e
=33	=33	=33	=33	=33
0r	1E	1G	2.B	4e]
.	.	.	.	4f
.	.	.	.	4g
.	.	.	4c	4e
.	2D	1A	1d	2f
.	[2F	.	.	[2a
=34	=34	=34	=34	=34
0r	2F]	1B	2.e	4a]
.	.	.	.	4g
.	1E	.	.	1g
.	.	.	4d	.
.	.	1G	2B	.
.	2C	.	[2c	4f
.	.	.	.	4e
=35	=35	=35	=35	=35
1GG	0G	0r	2c]	1d
.	.	.	2B	.
[1C	.	.	1c	1e
=36	=36	=36	=36	=36
2C]	2r	0r	1e	0r
2C	2E	.	.	.
2D	2F	.	2d	.
[2E	2G	.	2c	.
=37	=37	=37	=37	=37
2E]	2.A	0r	1f	1d
2D	.	.	.	.
.	4B	.	.	.
2.E	2c	.	1e	[1g
.	2B	.	.	.
4F	.	.	.	.
=38	=38	=38	=38	=38
2G	1E	2r	2r	2g]
2E	.	2G	1e	2g
2.F	1r	[1c	.	[1a
.	.	.	2A	.
4E	.	.	.	.
=39	=39	=39	=39	=39
1C	1r	2c]	1e	2a]
.	.	2c	.	2g
1r	2r	2c	1r	2a
.	[2G	2d	.	2b
=40	=40	=40	=40	=40
1C	2G]	1e	0r	0cc
.	2.c	.	.	.
1F	.	1A	.	.
.	4B	.	.	.
.	2A	.	.	.
=41	=41	=41	=41	=41
2E	2G	2r	1c	0r
2C	1c	1A	.	.
1D	.	.	1f	.
.	[2B	2F	.	.
=42	=42	=42	=42	=42
2C	2B]	2G	2e	1r
2AA	1A	2A	2c	.
1BB	.	1D	1d	2r
.	2G#i	.	.	2g
=43	=43	=43	=43	=43
1AA	1A	2E	2c	1cc
.	.	2F	2.f	.
1r	1r	2G	.	2b
.	.	.	4e	.
.	.	2E	[2e	2g
=44	=44	=44	=44	=44
0r	2r	1F	2e]	1a
.	2A	.	2d	.
.	2B	1E	1e	2g
.	2c	.	.	2e
=45	=45	=45	=45	=45
1D	2d	0r	1A	1f
.	2A	.	.	.
2C	1c	.	1r	2e
2AA	.	.	.	[2a
=46	=46	=46	=46	=46
1E	1B	2r	1e	2a]
.	.	2B	.	2g
1AA	[1A	1c	2e	2a
.	.	.	2e	[2cc
=47	=47	=47	=47	=47
0r	2A]	2A	2c	2cc]
.	2G	2B	2d	2b
.	2F	1c	[1f	4a
.	.	.	.	4b
.	2E	.	.	4cc
.	.	.	.	4a
=48	=48	=48	=48	=48
1r	1D	1d	1f]	2b
.	.	.	.	1a
2r	1E	[1B	[1e	.
2E	.	.	.	4g
.	.	.	.	4f
=49	=49	=49	=49	=49
2E	0r	1B]	1e]	1g
2E	.	.	.	.
2C	.	[1A	2r	1r
2D	.	.	2d	.
=50	=50	=50	=50	=50
0F	1r	1A]	2c	0r
.	.	.	2B	.
.	2r	1r	1A	.
.	[2A	.	.	.
=51	=51	=51	=51	=51
1E	2A]	1e	1B	0r
.	2G	.	.	.
2r	2A	2e	1c	.
[2A	[2c	2e	.	.
=52	=52	=52	=52	=52
2A]	2c]	2c	1r	0r
2G	2B	2d	.	.
2F	2A	[1f	2r	.
2E	2G	.	[2c	.
=53	=53	=53	=53	=53
2.D	2F	1f]	2c]	1r
.	2D	.	2B	.
4C	.	.	.	.
1AA	1A	1e	2.c	2r
.	.	.	.	2a
.	.	.	4d	.
=54	=54	=54	=54	=54
1r	1E	2r	4e	2g
.	.	.	4f	.
.	.	1e	1g	1cc
1C	1r	.	.	.
.	.	2d	2f	2b
=55	=55	=55	=55	=55
1C	1r	2c	1e	2a
.	.	2B	.	1g
1D	2r	2.A	1d	.
.	2A	.	.	2f
.	.	4G	.	.
=56	=56	=56	=56	=56
0C	2.c	1E	1G	2.g
.	4B	.	.	8fL
.	.	.	.	8eJ
.	2G	1r	2r	1e
.	2A	.	2c	.
=57	=57	=57	=57	=57
2r	1E	1G	1c	0r
1C	.	.	.	.
.	2r	1G	1d	.
2BB	2D	.	.	.
=58	=58	=58	=58	=58
2.AA	2F	1A	1c	0r
.	1E	.	.	.
4BB	.	.	.	.
1C	.	[1G	2r	.
.	[2G	.	[2c	.
=59	=59	=59	=59	=59
1GG	2G]	1G]	2c]	2r
.	2.D	.	2B	1g
1D	.	1r	2.A	.
.	4E	.	.	.
.	4F	.	.	2f
.	4G	.	4B	.
=60	=60	=60	=60	=60
0r	4A	1r	1c	2.e
.	4B	.	.	.
.	1c	.	.	.
.	.	.	.	4f
.	.	2r	1G	1g
.	2B	[2G	.	.
=61	=61	=61	=61	=61
0r	2.A	2G]	1r	1d
.	.	2F	.	.
.	4B	.	.	.
.	2c	1E	2r	[1g
.	2G	.	[2B	.
=62	=62	=62	=62	=62
2r	1r	1G	2B]	1g]
1C	.	.	2c	.
.	2r	1D	1d	1g
2BB	[2G	.	.	.
=63	=63	=63	=63	=63
2.AA	2G]	1A	2.c	1cc
.	2F	.	.	.
4BB	.	.	4d	.
1C	2.E	1G	1e	[1cc
.	4F	.	.	.
=64	=64	=64	=64	=64
0GG	1G	2r	0d	2cc]
.	.	2G	.	4b
.	.	.	.	4a
.	1D	2G	.	1b
.	.	[2G	.	.
=65	=65	=65	=65	=65
0C	0r	4G]	1r	2r
.	.	4C	.	.
.	.	2.c	.	1g
.	.	.	1c	.
.	.	4B	.	.
.	.	2A	.	2a
=66	=66	=66	=66	=66
0r	1r	2.G	2d	1b
.	.	.	1e	.
.	.	4C	.	.
.	2r	1C	.	1e
.	[2G	.	4d	.
.	.	.	4c	.
=67	=67	=67	=67	=67
0r	2G]	0r	2B	1g
.	2A	.	1e	.
.	1B	.	.	1f
.	.	.	2d	.
=68	=68	=68	=68	=68
2r	1E	0c	2e	1e
1C	.	.	1g	.
.	1r	.	.	[1g
2D	.	.	2f	.
=69	=69	=69	=69	=69
1E	2r	1B	1e	2g]
.	1G	.	.	2g
1AA	.	1A	[1c	1a
.	2F	.	.	.
=70	=70	=70	=70	=70
2r	1E	1.e	1c]	0g
1C	.	.	.	.
.	1B	.	1G	.
2BB	.	2d	.	.
=71	=71	=71	=71	=71
1AA	2E	1c	0e	1a
.	1A	.	.	.
1E	.	1B	.	1b
.	2G	.	.	.
=72	=72	=72	=72	=72
0AA	2.A	1A	0e	[0cc
.	4G	.	.	.
.	2E	[1c	.	.
.	[2A	.	.	.
=73	=73	=73	=73	=73
1.C	2A]	2c]	1.e	0cc]
.	2A	2d	.	.
.	[1G	[1e	.	.
2D	.	.	2f	.
=74	=74	=74	=74	=74
[0E	1G]	1e]	0g	1r
.	2r	1r	.	[1b
.	[2G	.	.	.
=75	=75	=75	=75	=75
0E]	2G]	0e	2r	1b]
.	2E	.	1g	.
.	1E	.	.	1g
.	.	.	2e	.
=76	=76	=76	=76	=76
0r	1A	1c	1f	1a
.	[1G	1d	1g	1b
=77	=77	=77	=77	=77
1.C	1G]	1e	1c	[0g
.	2r	[1c	2r	.
2C	[2G	.	2e	.
=78	=78	=78	=78	=78
1C	2G]	2c]	2e	1g]
.	2E	2B	2e	.
1D	1F	1A	1d	1r
=79	=79	=79	=79	=79
1E	1G	1r	1B	0r
[1C	1E	[1G	[1e	.
=80	=80	=80	=80	=80
2C]	2r	1G]	2e]	1.cc
2C	2E	.	2e	.
2.C	2G	1E	2.e	.
.	2G	.	.	2cc
4BB	.	.	4d	.
=81	=81	=81	=81	=81
1AA	1A	1F	2c	1cc
.	.	.	2A	.
1GG	1D	1G	1B	1b
=82	=82	=82	=82	=82
[0AA	2r	0E	1c	1a
.	1A	.	.	.
.	.	.	2.A	[1cc
.	2G	.	.	.
.	.	.	4B	.
=83	=83	=83	=83	=83
0AA]	1F	1.A	2c	2cc]
.	.	.	2d	2b
.	[1El	.	[1el	[1a
.	.	2B	.	.
=84	=84	=84	=84	=84
[0El	0E_	1c	0e_	2a]
.	.	.	.	4g#i
.	.	.	.	4f#i
.	.	1B	.	[1g#Xl
=85	=85	=85	=85	=85
00E]	00E]	00Bl	00e]	00g#]
==	==	==	==	==
*-	*-	*-	*-	*-
!!!system-decoration: [*]
!!!RDF**kern: i = editorial accidental
!!!RDF**kern: l = terminal long
!!!ENC: Benjamin Ory
!!!END: 2022/4/29
!!!EED: Benjamin Ory
!!!EEV: 2022/04/29
!!!YEC: Copyright 2022 Benjamin Ory, All Rights Reserved
!!!ONB: Translated from MusicXML on 2022/04/29
